img/adv-icon5.svg

<svg width="56" height="56" viewBox="0 0 56 56" fill="none" xmlns="http://www.w3.org/2000/svg">
    <g clip-path="url(#clip0_306_4333)">
        <path d="M55.0667 30.8H52.2667V8.4C52.2667 8.37949 52.2562 8.36263 52.2553 8.34212C52.2498 8.25827 52.2329 8.17533 52.2051 8.09557C52.1965 8.06595 52.186 8.03678 52.1742 8.00807C52.1304 7.91009 52.0702 7.82031 51.996 7.74284L44.5293 0.276172C44.4518 0.201888 44.3625 0.141732 44.2641 0.0979818C44.2367 0.0861328 44.208 0.0761068 44.1793 0.0669922C44.0982 0.0382812 44.0134 0.0214193 43.9273 0.0168619C43.9077 0.010026 43.8872 0.00455729 43.8667 0H15.8667C13.2904 0.00319011 11.2032 2.09043 11.2 4.66667V5.6H8.4C5.82376 5.60319 3.73652 7.69043 3.73333 10.2667V30.8H0.933333C0.417904 30.8 0 31.2179 0 31.7333V51.3333C0.00319011 53.9096 2.09043 55.9968 4.66667 56H51.3333C53.9096 55.9968 55.9968 53.9096 56 51.3333V31.7333C56 31.2179 55.5821 30.8 55.0667 30.8ZM49.0802 7.46667H45.7333C45.2179 7.46667 44.8 7.04876 44.8 6.53333V3.18646L49.0802 7.46667ZM13.0667 4.66667C13.0667 3.12038 14.3204 1.86667 15.8667 1.86667H42.9333V6.53333C42.9333 8.07962 44.187 9.33333 45.7333 9.33333H50.4V30.8H44.8V14C44.8 13.9795 44.7895 13.9626 44.7886 13.9421C44.7831 13.8583 44.7663 13.7753 44.7385 13.6956C44.7298 13.666 44.7193 13.6368 44.7075 13.6081C44.6637 13.5101 44.6036 13.4203 44.5293 13.3428L37.0626 5.87617C36.9852 5.80143 36.8949 5.74082 36.7965 5.69707C36.7701 5.68613 36.7432 5.67656 36.7154 5.66836C36.6324 5.63828 36.5454 5.62051 36.457 5.61595C36.4328 5.60911 36.4178 5.6 36.4 5.6H13.0667V4.66667ZM37.3333 8.78646L41.6135 13.0667H38.2667C37.7512 13.0667 37.3333 12.6488 37.3333 12.1333V8.78646ZM5.6 10.2667C5.6 8.72038 6.85371 7.46667 8.4 7.46667H35.4667V12.1333C35.4667 13.6796 36.7204 14.9333 38.2667 14.9333H42.9333V30.8H42C40.4537 30.8 39.2 32.0537 39.2 33.6V35.4667C39.2023 35.7046 39.1708 35.9415 39.1066 36.1703C38.7903 37.4062 37.6756 38.2694 36.4 38.2667H19.6C18.3162 38.2676 17.1969 37.393 16.8866 36.1471C16.8264 35.9256 16.7968 35.6964 16.8 35.4667V33.6C16.8 32.0537 15.5463 30.8 14 30.8H5.6V10.2667ZM54.1333 51.3333C54.1333 52.8796 52.8796 54.1333 51.3333 54.1333H4.66667C3.12038 54.1333 1.86667 52.8796 1.86667 51.3333V32.6667H14C14.5154 32.6667 14.9333 33.0846 14.9333 33.6V35.4667C14.9297 35.8595 14.9803 36.2505 15.0837 36.6297C15.6092 38.6937 17.4699 40.1374 19.6 40.1333H36.4C38.5219 40.1393 40.3785 38.7069 40.9108 36.6529C41.017 36.2665 41.0694 35.8673 41.0667 35.4667V33.6C41.0667 33.0846 41.4846 32.6667 42 32.6667H54.1333V51.3333Z" fill="white"/>
        <path d="M35.4667 42H20.5333C18.987 42 17.7333 43.2537 17.7333 44.8C17.7333 46.3463 18.987 47.6 20.5333 47.6H35.4667C37.013 47.6 38.2667 46.3463 38.2667 44.8C38.2667 43.2537 37.013 42 35.4667 42ZM35.4667 45.7333H20.5333C20.0179 45.7333 19.6 45.3154 19.6 44.8C19.6 44.2846 20.0179 43.8667 20.5333 43.8667H35.4667C35.9821 43.8667 36.4 44.2846 36.4 44.8C36.4 45.3154 35.9821 45.7333 35.4667 45.7333Z" fill="white"/>
        <path d="M17.7333 13.0666H30.8C31.3154 13.0666 31.7333 12.6487 31.7333 12.1333C31.7333 11.6179 31.3154 11.2 30.8 11.2H17.7333C17.2179 11.2 16.8 11.6179 16.8 12.1333C16.8 12.6487 17.2179 13.0666 17.7333 13.0666Z" fill="white"/>
        <path d="M11.2 17.7334C11.2 18.2488 11.6179 18.6667 12.1333 18.6667H36.4C36.9154 18.6667 37.3333 18.2488 37.3333 17.7334C37.3333 17.218 36.9154 16.8 36.4 16.8H12.1333C11.6179 16.8 11.2 17.218 11.2 17.7334Z" fill="white"/>
        <path d="M36.4 22.4H12.1333C11.6179 22.4 11.2 22.8179 11.2 23.3334C11.2 23.8488 11.6179 24.2667 12.1333 24.2667H36.4C36.9154 24.2667 37.3333 23.8488 37.3333 23.3334C37.3333 22.8179 36.9154 22.4 36.4 22.4Z" fill="white"/>
        <path d="M37.3333 28.9333C37.3333 28.4179 36.9154 28 36.4 28H12.1333C11.6179 28 11.2 28.4179 11.2 28.9333C11.2 29.4488 11.6179 29.8667 12.1333 29.8667H36.4C36.9154 29.8667 37.3333 29.4488 37.3333 28.9333Z" fill="white"/>
        <path d="M36.4 33.6H19.6C19.0846 33.6 18.6667 34.0179 18.6667 34.5333C18.6667 35.0487 19.0846 35.4666 19.6 35.4666H36.4C36.9154 35.4666 37.3333 35.0487 37.3333 34.5333C37.3333 34.0179 36.9154 33.6 36.4 33.6Z" fill="white"/>
        <path d="M13.0667 10.2667C13.0667 9.75128 12.6488 9.33337 12.1333 9.33337H10.2667C8.72037 9.33337 7.46666 10.5871 7.46666 12.1334V14C7.46666 14.5155 7.88456 14.9334 8.39999 14.9334C8.91542 14.9334 9.33333 14.5155 9.33333 14V12.1334C9.33333 11.6179 9.75123 11.2 10.2667 11.2H12.1333C12.6488 11.2 13.0667 10.7821 13.0667 10.2667Z" fill="white"/>
        <path d="M50.4 45.7334V49.4667C50.4 49.9821 49.9821 50.4 49.4667 50.4H45.7333C45.2179 50.4 44.8 50.818 44.8 51.3334C44.8 51.8488 45.2179 52.2667 45.7333 52.2667H49.4667C51.013 52.2667 52.2667 51.013 52.2667 49.4667V45.7334C52.2667 45.218 51.8488 44.8 51.3333 44.8C50.8179 44.8 50.4 45.218 50.4 45.7334Z" fill="white"/>
    </g>
    <defs>
        <clipPath id="clip0_306_4333">
            <rect width="56" height="56" fill="white"/>
        </clipPath>
    </defs>
</svg>

<svg width="56" height="56" fill="none" xmlns="http://www.w3.org/2000/svg"><g clip-path="url(#clip0_306_4333)" fill="#fff"><path d="M55.067 30.8h-2.8V8.4c0-.02-.01-.037-.012-.058a.935.935 0 00-.05-.246.865.865 0 00-.03-.088.935.935 0 00-.179-.265L44.529.276a.927.927 0 00-.602-.26.542.542 0 00-.06-.016h-28A4.672 4.672 0 0011.2 4.667V5.6H8.4a4.672 4.672 0 00-4.667 4.667V30.8h-2.8a.933.933 0 00-.933.933v19.6A4.672 4.672 0 004.667 56h46.666A4.672 4.672 0 0056 51.333v-19.6a.933.933 0 00-.933-.933zM49.08 7.467h-3.347a.933.933 0 01-.933-.934V3.186l4.28 4.28zm-36.013-2.8a2.8 2.8 0 012.8-2.8h27.066v4.666a2.8 2.8 0 002.8 2.8H50.4V30.8h-5.6V14c0-.02-.01-.037-.011-.058a.935.935 0 00-.05-.246.892.892 0 00-.031-.088.933.933 0 00-.179-.265l-7.466-7.467a.81.81 0 00-.347-.208.893.893 0 00-.259-.052c-.024-.007-.04-.016-.057-.016H13.067v-.933zm24.266 4.12l4.28 4.28h-3.346a.933.933 0 01-.934-.934V8.786zM5.6 10.266a2.8 2.8 0 012.8-2.8h27.067v4.666a2.8 2.8 0 002.8 2.8h4.666V30.8H42a2.8 2.8 0 00-2.8 2.8v1.867c.002.238-.03.474-.093.703a2.788 2.788 0 01-2.707 2.097H19.6a2.795 2.795 0 01-2.713-2.12c-.06-.221-.09-.45-.087-.68V33.6a2.8 2.8 0 00-2.8-2.8H5.6V10.267zm48.533 41.066a2.8 2.8 0 01-2.8 2.8H4.667a2.8 2.8 0 01-2.8-2.8V32.667H14c.515 0 .933.418.933.933v1.867a4.27 4.27 0 00.15 1.163 4.651 4.651 0 004.517 3.503h16.8a4.646 4.646 0 004.51-3.48c.107-.386.16-.786.157-1.186V33.6c0-.515.418-.933.933-.933h12.133v18.666z"/><path d="M35.467 42H20.533a2.8 2.8 0 000 5.6h14.934a2.8 2.8 0 000-5.6zm0 3.733H20.533a.933.933 0 010-1.866h14.934a.933.933 0 010 1.866zM17.733 13.067H30.8a.933.933 0 000-1.867H17.733a.933.933 0 000 1.867zM11.2 17.733c0 .516.418.934.933.934H36.4a.933.933 0 000-1.867H12.133a.933.933 0 00-.933.933zM36.4 22.4H12.133a.933.933 0 000 1.867H36.4a.933.933 0 000-1.867zm.933 6.533A.933.933 0 0036.4 28H12.133a.933.933 0 000 1.867H36.4a.933.933 0 00.933-.934zM36.4 33.6H19.6a.933.933 0 000 1.867h16.8a.933.933 0 000-1.867zM13.067 10.267a.933.933 0 00-.934-.934h-1.866a2.8 2.8 0 00-2.8 2.8V14a.933.933 0 101.866 0v-1.867c0-.515.418-.933.934-.933h1.866a.933.933 0 00.934-.933zM50.4 45.733v3.734a.933.933 0 01-.933.933h-3.734a.933.933 0 000 1.867h3.734a2.8 2.8 0 002.8-2.8v-3.734a.933.933 0 00-1.867 0z"/></g><defs><clipPath id="clip0_306_4333"><path fill="#fff" d="M0 0h56v56H0z"/></clipPath></defs></svg>
